src/components/Powered/assets/melonport.svg

<svg width="138" height="89" viewBox="0 0 138 89" fill="none" xmlns="http://www.w3.org/2000/svg">
<path d="M64.6791 29.2327L65.1215 29.4629L65.1057 29.979L61.393 32.1385L60.9586 31.3922L64.6791 29.2327ZM48.8411 38.4026L49.2677 39.1489L53.1936 36.8783L52.767 36.132L48.8411 38.4026ZM55.0183 34.8617L55.4449 35.608L59.1575 33.4405L58.7231 32.6942L55.0183 34.8617ZM73.2577 29.2327L72.8154 29.4629L72.8312 29.979L76.5438 32.1385L76.9704 31.3922L73.2577 29.2327ZM89.0957 38.4026L88.6692 39.1489L84.7432 36.8783L85.1698 36.132L89.0957 38.4026ZM82.9185 34.8617L82.492 35.608L78.7793 33.4405L79.2138 32.6942L82.9185 34.8617Z" fill="white"/>
<path fill-rule="evenodd" clip-rule="evenodd" d="M69.3397 15.6882H68.4866V11.3771H69.3397V15.6882ZM69.3397 22.5874L68.921 22.7542L68.4866 22.5874V18.2764H69.3397V22.5874ZM68.4866 4.23962H69.3397V8.78887H68.4866V4.23962Z" fill="white"/>
<path d="M69.9163 0.627226L91.4339 13.1079L92.1527 13.5287L92.3818 13.6636V40.832L92.1527 40.967L91.4339 41.3878L80.6751 47.6281L75.1377 50.8435L74.4426 51.2405V46.8342L74.6717 46.6992L78.7714 44.3254L86.4495 39.8714L88.5823 38.6408V18.062L70.8721 28.3435V57.9413L70.6431 58.0763L69.9242 58.4971L69.2054 58.9179L68.9763 59.0528L68.7472 58.9179L68.0284 58.4971L67.3096 58.0763L67.0805 57.9413V28.3435L49.3546 18.062V38.1406H49.3625V38.6487L50.7448 39.4427L59.1654 44.3254L63.2652 46.6992L63.4942 46.8342V51.2405L62.807 50.8435L57.2696 47.6281L46.5108 41.3878L45.792 40.967L45.5629 40.832V13.6716L45.792 13.5366L46.5108 13.1158C53.6755 8.95559 60.848 4.78744 68.0205 0.627226L68.7393 0.206441L68.9684 0.0714722L69.1975 0.206441L69.9163 0.627226ZM51.2425 14.7672L68.9684 25.0486L86.6944 14.7672L70.4535 5.34319L68.9684 4.47781L66.0378 6.17682L65.8324 6.29591C60.9744 9.11438 56.1084 11.9408 51.2425 14.7672ZM105.194 86.8485C103.946 88.1823 102.201 88.9365 100.352 88.9365C98.4089 88.9365 96.6553 88.214 95.4151 86.912C94.246 85.6814 93.5272 83.9268 93.5272 81.7593C93.5272 80.0841 94.096 78.528 95.0992 77.3292C96.0787 76.1621 97.461 75.3285 99.1199 75.0744H99.1278C99.5148 75.0188 99.8861 75.003 100.249 75.003C100.613 75.003 100.976 75.0347 101.332 75.0744H101.347C102.991 75.3285 104.452 76.1621 105.487 77.3609C106.49 78.528 107.098 80.0603 107.098 81.7673C107.09 83.8633 106.356 85.6099 105.194 86.8485ZM101.079 76.964C100.502 76.8846 99.9335 76.8846 99.3964 76.964C98.2431 77.1466 97.2873 77.7023 96.6237 78.5439C95.9681 79.3775 95.5889 80.497 95.5889 81.8149C95.5889 83.379 96.0866 84.6493 96.9081 85.5464C97.7612 86.4674 98.9698 86.9834 100.344 86.9834C101.679 86.9834 102.888 86.4753 103.741 85.5385C104.547 84.6572 105.044 83.3948 105.044 81.8149C105.044 80.5684 104.634 79.449 103.938 78.5995C103.243 77.75 102.248 77.1625 101.079 76.964ZM125.543 75.8048C125.677 75.4793 125.985 75.2173 126.451 75.2173H136.926C137.408 75.2173 137.724 75.4714 137.858 75.7969C137.913 75.9239 137.937 76.0589 137.937 76.1939C137.937 76.3288 137.913 76.4638 137.858 76.5908C137.716 76.9163 137.408 77.1704 136.926 77.1704H132.692C132.692 79.314 132.7 80.8622 132.7 82.4104C132.708 84.4984 132.708 86.7135 132.708 87.9282C132.708 88.2378 132.589 88.484 132.415 88.6507C132.21 88.8571 131.918 88.9524 131.673 88.9524C131.42 88.9524 131.143 88.8492 130.946 88.6507C130.78 88.476 130.67 88.2378 130.67 87.9282V77.1704H126.459C125.993 77.1704 125.685 76.9163 125.551 76.5829C125.495 76.4559 125.472 76.3209 125.472 76.1939C125.464 76.0668 125.488 75.9319 125.543 75.8048ZM121.001 88.5395L117.004 84.1808H113.473V87.8488C113.473 88.3172 113.204 88.6189 112.857 88.7539C112.73 88.8015 112.596 88.8254 112.462 88.8254C112.327 88.8254 112.193 88.8015 112.067 88.7539C111.727 88.6269 111.459 88.3252 111.459 87.8647V76.2097C111.459 75.916 111.569 75.6699 111.751 75.4952C111.932 75.3205 112.185 75.2253 112.478 75.2253H117.264C118.994 75.2253 120.329 75.7016 121.254 76.4638C122.288 77.3213 122.81 78.536 122.81 79.8618C122.81 80.9892 122.494 81.9578 121.814 82.6962C121.269 83.2996 120.487 83.7442 119.46 83.9903L122.399 87.1819C122.754 87.5392 122.802 87.9282 122.683 88.2458C122.636 88.3807 122.549 88.4919 122.454 88.5951C122.359 88.6904 122.233 88.7618 122.107 88.8095C121.767 88.9444 121.34 88.8968 121.001 88.5395ZM117.28 77.1307H113.473V82.3468H117.494C118.647 82.3151 119.476 82.0293 120.013 81.5847C120.527 81.156 120.764 80.5764 120.764 79.9412V79.8698C120.756 79.0917 120.416 78.3931 119.792 77.9008C119.208 77.4245 118.347 77.1307 117.28 77.1307ZM88.606 83.641C87.7055 84.4111 86.3863 84.8874 84.6484 84.8874H81.3071V87.8806C81.3071 88.349 81.0385 88.6507 80.6988 88.7777C80.5724 88.8254 80.4381 88.8492 80.3039 88.8492C80.1696 88.8492 80.0353 88.8254 79.9089 88.7777C79.5692 88.6507 79.3006 88.3569 79.3006 87.8965V76.2097C79.3006 75.9239 79.4191 75.6778 79.6008 75.5031C79.7904 75.3205 80.0432 75.2253 80.3197 75.2253H84.7037C86.3942 75.2253 87.6739 75.7572 88.5665 76.567C89.6092 77.5118 90.1147 78.8456 90.1147 80.1794C90.1147 81.5291 89.625 82.7756 88.606 83.641ZM84.7274 77.091H81.2992V83.0217H84.8143C85.9913 82.9899 86.8286 82.6327 87.3658 82.1087C87.8871 81.6006 88.132 80.9257 88.132 80.2509V80.1715C88.1241 79.3617 87.7766 78.5439 87.1288 77.9564C86.5601 77.4324 85.7543 77.091 84.7274 77.091ZM57.0089 86.8485C55.7609 88.1823 54.0151 88.9365 52.1667 88.9365C50.2235 88.9365 48.4698 88.214 47.2297 86.912C46.0606 85.6814 45.3417 83.9268 45.3417 81.7593C45.3417 80.0841 45.9105 78.528 46.9137 77.3292C47.8932 76.1621 49.2756 75.3285 50.9344 75.0744H50.9423C51.3294 75.0188 51.7006 75.003 52.064 75.003C52.4274 75.003 52.7907 75.0347 53.1462 75.0744H53.162C54.8051 75.3285 56.2664 76.1621 57.3012 77.3609C58.3044 78.528 58.9127 80.0603 58.9127 81.7673C58.9048 83.8633 58.1701 85.6099 57.0089 86.8485ZM52.8934 76.964C52.3168 76.8846 51.748 76.8846 51.2109 76.964C50.0576 77.1466 49.1018 77.7023 48.4382 78.5439C47.7826 79.3775 47.4034 80.497 47.4034 81.8149C47.4034 83.379 47.9011 84.6493 48.7226 85.5464C49.5757 86.4674 50.7843 86.9834 52.1588 86.9834C53.4938 86.9834 54.7024 86.4753 55.5555 85.5385C56.3612 84.6572 56.8589 83.3948 56.8589 81.8149C56.8589 80.5684 56.4481 79.449 55.753 78.5995C55.0578 77.75 54.0625 77.1625 52.8934 76.964ZM72.5152 85.3559L72.373 83.2122V76.0033C72.373 75.5587 72.6574 75.265 73.0207 75.1379C73.1471 75.0982 73.2893 75.0744 73.4236 75.0744C73.5579 75.0744 73.6922 75.0982 73.8265 75.1379C74.1819 75.257 74.4584 75.5428 74.4584 76.0033V87.6662C74.4584 87.9917 74.3478 88.2458 74.1661 88.4363C74.0081 88.6031 73.7949 88.7142 73.5658 88.7698C73.3446 88.8174 73.1076 88.8174 72.8943 88.7618C72.5942 88.6824 72.3098 88.5078 72.1439 88.2299L65.1294 78.79L65.24 80.6796V87.8647C65.24 88.3569 64.9635 88.6745 64.608 88.8174C64.4737 88.8651 64.3316 88.8968 64.1973 88.8968C64.0551 88.8968 63.9129 88.873 63.7865 88.8174C63.4389 88.6745 63.1625 88.3649 63.1625 87.8647V76.2256C63.1625 75.9001 63.2652 75.6302 63.4231 75.4396C63.5653 75.265 63.747 75.1538 63.9524 75.0982C64.1499 75.0427 64.3632 75.0506 64.5764 75.1062C64.845 75.1856 65.1057 75.3602 65.2953 75.6381L72.5152 85.3559ZM43.5249 88.1585C43.3827 88.4681 43.0589 88.7142 42.5612 88.7142H34.2749C33.9273 88.7142 33.6666 88.6189 33.4929 88.4363C33.3112 88.2537 33.2322 87.9997 33.2322 87.6821V76.0271C33.2322 75.5508 33.5008 75.2411 33.8483 75.1141C33.9747 75.0665 34.1169 75.0427 34.2512 75.0427C34.3855 75.0427 34.5277 75.0665 34.6541 75.1141C35.0016 75.2491 35.2702 75.5587 35.2702 76.0271V86.8246H42.5533C43.051 86.8246 43.3669 87.0708 43.517 87.3804C43.5723 87.5074 43.6039 87.6424 43.6039 87.7694C43.6118 87.8965 43.5802 88.0314 43.5249 88.1585ZM27.5763 82.9661H20.2537V86.8246H27.9634C28.4057 86.8246 28.7059 87.0866 28.8402 87.4122C28.8876 87.5312 28.9192 87.6662 28.9192 87.7932C28.9192 87.9203 28.8955 88.0552 28.8481 88.1743C28.7217 88.484 28.4294 88.7142 27.9634 88.7142H19.448C19.1004 88.7142 18.8081 88.5872 18.5949 88.3887C18.3737 88.1743 18.2473 87.8726 18.2473 87.5471V76.3923C18.2473 76.0748 18.3737 75.781 18.6028 75.5667C18.816 75.3682 19.1004 75.2491 19.448 75.2491H27.9792C28.4136 75.2491 28.698 75.4873 28.8165 75.7969C28.8639 75.908 28.8876 76.043 28.8876 76.1621C28.8876 76.2891 28.8639 76.4162 28.8165 76.5353C28.6901 76.8528 28.3978 77.1069 27.9634 77.1069H20.2537V81.1242H27.5763C28.0029 81.1242 28.2794 81.3703 28.4057 81.6879C28.4531 81.799 28.4768 81.9261 28.4768 82.0531C28.4768 82.1801 28.4531 82.3072 28.4136 82.4183C28.2794 82.72 28.0108 82.9661 27.5763 82.9661ZM1.88004 75.654L6.58009 83.0058L11.2407 75.646C11.4144 75.3761 11.6435 75.2014 11.8805 75.13C12.0622 75.0744 12.2518 75.0744 12.4255 75.122C12.5993 75.1697 12.7652 75.2729 12.8837 75.4237C13.0338 75.6063 13.1365 75.8604 13.1365 76.1621V87.8647C13.1365 88.349 12.8679 88.6586 12.5282 88.7936C12.4018 88.8492 12.2597 88.873 12.1254 88.873C11.9911 88.873 11.8489 88.8492 11.7225 88.7936C11.3828 88.6586 11.1143 88.349 11.1143 87.8647V79.5601L7.50431 85.2447C7.38582 85.4591 7.21993 85.6099 7.03825 85.7052C6.88816 85.7846 6.72228 85.8243 6.5564 85.8243C6.39051 85.8243 6.22463 85.7846 6.07454 85.6973C5.90076 85.602 5.74277 85.4511 5.64008 85.2447L2.03012 79.584V87.8726C2.03012 88.3569 1.76155 88.6666 1.42188 88.8015C1.29549 88.8571 1.15331 88.8809 1.01902 88.8809C0.884731 88.8809 0.742544 88.8571 0.616156 88.8015C0.276488 88.6666 0.00791359 88.3569 0.00791359 87.8726V76.17C0.00791359 75.8445 0.118503 75.5746 0.292287 75.392C0.418675 75.257 0.57666 75.1617 0.750444 75.122C0.916328 75.0744 1.10591 75.0824 1.27969 75.1379C1.50087 75.2094 1.72205 75.384 1.88004 75.654Z" fill="white"/>
</svg>

<svg width="138" height="89" fill="none" xmlns="http://www.w3.org/2000/svg"><path d="M64.68 29.233l.441.23-.015.516-3.713 2.16-.434-.747 3.72-2.16zm-15.839 9.17l.427.746 3.926-2.27-.427-.747-3.926 2.27zm6.177-3.541l.427.746 3.712-2.167-.434-.747-3.705 2.168zm18.24-5.63l-.443.23.016.517 3.713 2.16.426-.747-3.712-2.16zm15.838 9.17l-.427.747-3.926-2.27.427-.747 3.926 2.27zm-6.178-3.54l-.426.746-3.713-2.167.435-.747 3.704 2.168z" fill="#fff"/><path fill-rule="evenodd" clip-rule="evenodd" d="M69.34 15.688h-.853v-4.31h.853v4.31zm0 6.9l-.419.166-.434-.167v-4.31h.853v4.31zM68.487 4.24h.853v4.549h-.853v-4.55z" fill="#fff"/><path d="M69.916.627l21.518 12.48.719.422.229.135v27.168l-.23.135-.718.42-10.759 6.241-5.537 3.215-.695.397v-4.406l.229-.135 4.1-2.374 7.677-4.454 2.133-1.23V18.062l-17.71 10.281v29.598l-.229.135-.719.421-.719.42-.229.136-.229-.135-.719-.42-.718-.422-.23-.135V28.343L49.355 18.063v20.079h.008v.508l1.382.794 8.42 4.882 4.1 2.374.23.135v4.406l-.688-.397-5.537-3.215-10.76-6.24-.718-.421-.23-.135v-27.16l.23-.135.719-.421C53.675 8.956 60.848 4.787 68.02.627l.718-.42.23-.136.229.135.718.421zm-18.673 14.14L68.968 25.05l17.726-10.282-16.24-9.424-1.486-.865-2.93 1.699-.206.119a32817.1 32817.1 0 0 0-14.59 8.471zm53.951 72.082a6.61 6.61 0 0 1-4.842 2.087c-1.943 0-3.697-.722-4.937-2.024-1.169-1.23-1.888-2.985-1.888-5.153 0-1.675.569-3.231 1.572-4.43.98-1.167 2.362-2 4.02-2.255h.009a7.805 7.805 0 0 1 1.121-.071c.364 0 .727.032 1.083.071h.015a6.858 6.858 0 0 1 4.14 2.287 6.715 6.715 0 0 1 1.611 4.406c-.008 2.096-.742 3.843-1.904 5.082zm-4.115-9.885a5.97 5.97 0 0 0-1.683 0c-1.153.183-2.109.738-2.772 1.58-.656.834-1.035 1.953-1.035 3.27 0 1.565.498 2.835 1.32 3.732.852.921 2.06 1.437 3.435 1.437 1.335 0 2.544-.508 3.397-1.445.806-.88 1.303-2.143 1.303-3.723 0-1.247-.41-2.366-1.106-3.215-.695-.85-1.69-1.438-2.859-1.636zm24.464-1.16c.134-.325.442-.587.908-.587h10.475c.482 0 .798.254.932.58a.994.994 0 0 1 .079.397c0 .135-.024.27-.079.397-.142.325-.45.58-.932.58h-4.234c0 2.143.008 3.691.008 5.24.008 2.087.008 4.302.008 5.517a.98.98 0 0 1-.293.723 1.074 1.074 0 0 1-.742.301c-.253 0-.53-.103-.727-.301a1.016 1.016 0 0 1-.276-.723V77.17h-4.211c-.466 0-.774-.254-.908-.587a.967.967 0 0 1-.079-.39.853.853 0 0 1 .071-.388zm-4.542 12.736l-3.997-4.36h-3.531v3.669c0 .468-.269.77-.616.905a1.126 1.126 0 0 1-.79 0 .91.91 0 0 1-.608-.89V76.21c0-.294.11-.54.292-.715.181-.175.434-.27.727-.27h4.786c1.73 0 3.065.477 3.99 1.239 1.034.857 1.556 2.072 1.556 3.398 0 1.127-.316 2.096-.996 2.834-.545.604-1.327 1.048-2.354 1.294l2.939 3.192c.355.357.403.746.284 1.064a1.022 1.022 0 0 1-.229.35.987.987 0 0 1-.347.213c-.34.135-.767.088-1.106-.27zm-3.721-11.41h-3.807v5.217h4.021c1.153-.032 1.982-.318 2.519-.762.514-.429.751-1.009.751-1.644v-.071a2.495 2.495 0 0 0-.972-1.97c-.584-.476-1.445-.77-2.512-.77zm-28.674 6.511c-.9.77-2.22 1.246-3.958 1.246h-3.34v2.994c0 .468-.27.77-.61.897a1.12 1.12 0 0 1-.79 0 .9.9 0 0 1-.607-.882V76.21c0-.286.118-.532.3-.707a1.02 1.02 0 0 1 .719-.278h4.384c1.69 0 2.97.532 3.863 1.342 1.042.945 1.548 2.279 1.548 3.612 0 1.35-.49 2.597-1.509 3.462zm-3.879-6.55H81.3v5.93h3.515c1.177-.031 2.015-.388 2.552-.912a2.57 2.57 0 0 0 .766-1.858v-.08a3.047 3.047 0 0 0-1.003-2.215c-.569-.524-1.375-.865-2.402-.865zM57.01 86.849a6.612 6.612 0 0 1-4.842 2.087c-1.944 0-3.697-.722-4.937-2.024-1.17-1.23-1.888-2.985-1.888-5.153 0-1.675.569-3.231 1.572-4.43.98-1.167 2.362-2 4.02-2.255h.008a7.808 7.808 0 0 1 1.122-.071c.363 0 .727.032 1.082.071h.016a6.858 6.858 0 0 1 4.14 2.287 6.715 6.715 0 0 1 1.61 4.406c-.007 2.096-.742 3.843-1.903 5.082zm-4.116-9.885a5.97 5.97 0 0 0-1.682 0c-1.153.183-2.11.738-2.773 1.58-.655.834-1.035 1.953-1.035 3.27 0 1.565.498 2.835 1.32 3.732.853.921 2.061 1.437 3.436 1.437 1.335 0 2.543-.508 3.397-1.445.805-.88 1.303-2.143 1.303-3.723 0-1.247-.41-2.366-1.106-3.215-.695-.85-1.69-1.438-2.86-1.636zm19.622 8.392l-.142-2.144v-7.209c0-.444.284-.738.648-.865.126-.04.268-.064.403-.064.134 0 .268.024.402.064.356.119.632.405.632.865v11.663c0 .326-.11.58-.292.77a1.218 1.218 0 0 1-.6.334 1.475 1.475 0 0 1-.672-.008c-.3-.08-.584-.254-.75-.532l-7.015-9.44.111 1.89v7.185a.98.98 0 0 1-.632.952c-.134.048-.276.08-.41.08-.143 0-.285-.024-.411-.08-.348-.142-.624-.452-.624-.952v-11.64c0-.325.102-.595.26-.785a1.01 1.01 0 0 1 .53-.342c.197-.055.41-.047.623.008.269.08.53.254.72.532l7.22 9.718zm-28.99 2.803c-.142.31-.466.555-.964.555h-8.286c-.348 0-.608-.095-.782-.278-.182-.182-.26-.436-.26-.754V76.027c0-.476.268-.786.615-.913a1.166 1.166 0 0 1 .806 0 .939.939 0 0 1 .616.913v10.798h7.283c.498 0 .814.246.964.555a.99.99 0 0 1 .087.39.86.86 0 0 1-.08.389zm-15.949-5.193h-7.322v3.859h7.71c.442 0 .742.262.876.587.048.12.08.254.08.381s-.025.262-.072.381c-.126.31-.419.54-.885.54h-8.515c-.348 0-.64-.127-.853-.325a1.166 1.166 0 0 1-.348-.842V76.392c0-.317.127-.611.356-.825.213-.199.497-.318.845-.318h8.531c.435 0 .719.238.838.548a1.01 1.01 0 0 1 0 .738.887.887 0 0 1-.854.572h-7.71v4.017h7.323c.427 0 .703.246.83.564a.94.94 0 0 1 .07.365c0 .127-.023.254-.062.365-.135.302-.403.548-.838.548zM1.88 75.654l4.7 7.352 4.66-7.36c.174-.27.403-.445.64-.516a.98.98 0 0 1 .545-.008c.174.048.34.15.459.302.15.182.252.436.252.738v11.703c0 .484-.268.794-.608.929-.126.055-.268.079-.403.079-.134 0-.276-.024-.402-.08-.34-.134-.609-.444-.609-.928V79.56l-3.61 5.685a1.13 1.13 0 0 1-.466.46c-.15.08-.316.12-.482.12a1.046 1.046 0 0 1-.916-.58l-3.61-5.661v8.289c0 .484-.268.794-.608.928-.127.056-.269.08-.403.08s-.276-.024-.403-.08c-.34-.134-.608-.444-.608-.928V76.17c0-.326.11-.595.284-.778a.908.908 0 0 1 .458-.27.928.928 0 0 1 .53.016c.22.071.442.246.6.516z" fill="#fff"/></svg>
